X:485
T:Drowsy Maggie
S:Sessions etc
Z:Nigel Gatherer
R:reel
M:4/4
L:1/8
K:EDor
E2 BE dEBE  | E2 BE AFDF | E2 BE dEBE  | BABc dAFA :|
d2 fd c2 ec | defg  afge | d2 fd c2 ec | BABc dAFA  |
d2 fd c2 ec | defg  afge | afge  fdec |  BABc dAFA |]
<end>
<start>
